packages/components/svg/link.svg

<?xml version="1.0" encoding="UTF-8"?>
<svg width="24px" height="24px" viewBox="0 0 24 24" version="1.1" xmlns="http://www.w3.org/2000/svg" xmlns:xlink="http://www.w3.org/1999/xlink">
    <!-- Generator: Sketch 52.5 (67469) - http://www.bohemiancoding.com/sketch -->
    <title>link</title>
    <desc>Created with Sketch.</desc>
    <g id="Icons" stroke="none" stroke-width="1" fill="none" fill-rule="evenodd">
        <g id="link" fill="#FFFFFF">
            <path d="M7.0363951,14.8363457 C6.64477749,15.2279633 6.00983989,15.2279633 5.61822228,14.8363457 L4.90913586,14.1272592 C2.36362138,11.5817448 2.36362138,7.45465034 4.90913586,4.90913586 C7.45465034,2.36362138 11.5817448,2.36362138 14.1272592,4.90913586 L14.8363457,5.61822228 C15.2279633,6.00983989 15.2279633,6.64477749 14.8363457,7.0363951 L14.1272592,7.74548152 C13.7356416,8.13709913 13.100704,8.13709913 12.7090864,7.74548152 L12,7.0363951 C10.6293384,5.66573346 8.40705675,5.66573346 7.0363951,7.0363951 C5.66573346,8.40705675 5.66573346,10.6293384 7.0363951,12 L7.74548152,12.7090864 C8.13709913,13.100704 8.13709913,13.7356416 7.74548152,14.1272592 L7.0363951,14.8363457 Z M9.16365434,18.3817777 C8.77203673,17.9901601 8.77203673,17.3552225 9.16365434,16.9636049 L9.87274076,16.2545185 C10.2643584,15.8629009 10.899296,15.8629009 11.2909136,16.2545185 L12,16.9636049 C13.3706616,18.3342665 15.5929433,18.3342665 16.9636049,16.9636049 C18.3342665,15.5929433 18.3342665,13.3706616 16.9636049,12 L16.2545185,11.2909136 C15.8629009,10.899296 15.8629009,10.2643584 16.2545185,9.87274076 L16.9636049,9.16365434 C17.3552225,8.77203673 17.9901601,8.77203673 18.3817777,9.16365434 L19.0908641,9.87274076 C21.6363786,12.4182552 21.6363786,16.5453497 19.0908641,19.0908641 C16.5453497,21.6363786 12.4182552,21.6363786 9.87274076,19.0908641 L9.16365434,18.3817777 Z M9.16365434,9.16365434 C9.75108076,8.57622793 10.7034872,8.57622793 11.2909136,9.16365434 L14.8363457,12.7090864 C15.4237721,13.2965128 15.4237721,14.2489192 14.8363457,14.8363457 C14.2489192,15.4237721 13.2965128,15.4237721 12.7090864,14.8363457 L9.16365434,11.2909136 C8.57622793,10.7034872 8.57622793,9.75108076 9.16365434,9.16365434 Z" id="Combined-Shape"></path>
        </g>
    </g>
</svg>

<svg width="24" height="24" xmlns="http://www.w3.org/2000/svg"><path d="M7.036 14.836a1.003 1.003 0 0 1-1.418 0l-.709-.709a6.518 6.518 0 1 1 9.218-9.218l.71.71a1.003 1.003 0 0 1 0 1.417l-.71.71a1.003 1.003 0 0 1-1.418 0L12 7.035A3.51 3.51 0 0 0 7.036 12l.71.71a1.003 1.003 0 0 1 0 1.417l-.71.71zm2.128 3.546a1.003 1.003 0 0 1 0-1.418l.709-.71a1.003 1.003 0 0 1 1.418 0l.709.71A3.51 3.51 0 0 0 16.964 12l-.71-.71a1.003 1.003 0 0 1 0-1.417l.71-.71a1.003 1.003 0 0 1 1.418 0l.709.71a6.518 6.518 0 1 1-9.218 9.218l-.71-.71zm0-9.218a1.504 1.504 0 0 1 2.127 0l3.545 3.545a1.504 1.504 0 0 1-2.127 2.127l-3.545-3.545a1.504 1.504 0 0 1 0-2.127z"/></svg>
